X:1
T:Title
%%score { 1 | 2 }
L:1/8
Q:1/4=100
M:4/4
K:G
V:1 treble nm="Grand Piano"
V:2 bass 
V:1
 [B,D]>[B,D] [_B,^C]>[=B,D] [DB]>[Ec] [DB]>[^DA] | [EG]>E C>E [B,D]4 | G>G G>G G>F G>A | %3
w: R.~Frank~Lehman * * * * * * *|||
 [^CB]>[CA] [CE]>[CA] [DA]4 | [DB]>[DB] [Ec]2 [DB]2 [DA]>[DG] | [CE]2 [Ec]2 [DB]4 | %6
w: |||
 d>d d>[EAc] [DGB]2 [CFA]2 |[M:3/4] [B,DG]6 |] %8
w: ||
V:2
 [G,,G,]>[G,,G,] [G,,G,]>[G,,G,] [G,,G,]>[G,,G,] [G,,G,]>[B,,F,] | %1
 [C,E,]>[C,G,C] [E,G,]>[C,G,C] [G,,G,]4 | %2
 [G,B,D]>[G,B,D] [G,B,D]>[F,B,D] [E,B,E]>[E,B,E] [E,B,E]>[E,B,E] | %3
 [A,,G,]>[A,,G,] [A,,G,]>[A,,G,] [D,F,]4 | [G,,G,]>[G,,G,] [G,,G,]2 [G,,G,]2 [B,,G,]>[B,,G,] | %5
 [C,G,]2 [C,G,]2 [G,,G,]4 | [G,B,G]>[G,B,G] [G,B,G]>[K:bass]C, D,2 D,2 |[M:3/4] G,,6 |] %8

